X:3
T:Village Lawyer. Tho24CDs1792.03, The
M:2/4
L:1/8
Q:1/4=120
C:"75"
B:Thompson 24 CDs 1792
Z:Village Music Project, Chris Partington, 1999 & 2017
W:First Cu: hands 3 round with the 2nd Lady.| the same again with the 2nd
W:Gent:|lead down the middle and up again:|. Allemand with your partner:|
K:A
|:e|cAec|aece|edBd|(c/B/c/d/) ce|
cAec|aece|e-dBc|A2-A:|
|:B|GBEB|GBEe|dBcA|(B/A/B/c/) BB|
GBEB|GBEe|d-cBc|A2-[A,A]:|

